X:1
T:Title
%%score { ( 1 3 ) | ( 2 4 ) }
L:1/8
M:4/4
K:D
V:1 treble nm="Grand Piano"
V:3 treble 
V:2 bass 
V:4 bass 
V:1
 z4 z2[Q:1/4=100] [DF]>[EG] | [FA]>[FA] [FA]>[FA] [FA]>[Bd] [Ac]>[GB] | %2
 A2- [FA-]>[FA-] [FA]2 [EG]>[DF] | [CE]>[CE] [CE]>[DF] [EG]>[FA] [EG]>[DF] | E6 z2 | %5
 [FA]>[FA] [FA]>[FA] [FA]>[DF] [Fd]>[Ac] | B6 z2 | [DA]>[DB] [DA]>D [CF]2 [CE]2 |[M:3/4] D6 | %9
[M:1/4] A>d |[M:4/4] c4 z4 | d6 z2 | B>B B>B [^GB]>[GB] [Ge]>[EGd] | [EAc]2 [D^GB]2 [CEA]2 D>E | %14
 F>E F>[EG] [FA]>[DF] [EG]>[FA] |[M:9/8] B>BB- B/B/ d2- dc>B |[M:4/4] A2 d2 c2 [Ge]2 |[M:3/4] d6 |] %18
V:2
 z4 z2 [D,A,]>[D,A,] | [D,D]>[D,D] [D,D]>[D,D] [D,D]>[D,D] [D,D]>[D,D] | %2
 [D,D]2 [D,A,]>[D,A,] [D,A,]2 [C,A,]>[D,A,] | %3
 [A,,A,]>[A,,A,] [A,,A,]>[A,,A,] [A,,A,]>[A,,A,] [A,,A,]>[A,,A,] | %4
 [A,,A,]2 [A,,A,]>[A,,A,] [A,,A,]2 [D,A,D]>[D,A,] | %5
 [D,D]>[D,D] [D,D]>[D,D] [D,D]>[D,A,] [D,A,]>[D,D] | [G,DG]2 [G,D]2[K:bass] [G,D]2 [G,D]>[G,,G,] | %7
 [A,,F,]>[A,,G,] [A,,F,]>[A,,F,] [A,,A,]2 [A,,G,]2 |[M:3/4] [D,F,]6 |[M:1/4] z2 | %10
[M:4/4] z2[K:treble] [A,E]>[A,E] [A,EG]2 z2 | z2[K:bass] [D,A,]>[D,A,] [D,A,]2 [D,A,]>[D,D] | %12
 [G,DG]>[G,DG] [G,DG]>[G,DG][K:bass] [E,E]>[E,E] [E,B,]>E, | A,2 E,2 A,G, [F,A,]>[E,A,C] | %14
 [D,A,D]>[D,A,C] [D,A,D]>[D,A,] [D,D]>[D,A,] [D,A,]>[D,D] | %15
[M:9/8][K:treble] [G,DG]>[G,DG][G,DG]- [G,DG]/[G,DG]/ [G,B,G]2- [G,B,G][G,DA]>[G,DG] | %16
[M:4/4] [A,DF]2 [A,F]2[K:bass] [A,E]2 [A,,A,]2 |[M:3/4] A,>A, B,>B, A,2 |] %18
V:3
 x8 | x8 | F2 z2 z4 | x8 | C2 C>C C2 F>[EG] | x8 | z2 G2 G2 B>[DB] | x8 |[M:3/4] x6 |[M:1/4] x2 | %10
[M:4/4] z2 G>G c2 A>e | z2 F>F F2 [Fd]>[Ac] | x8 | x8 | x8 |[M:9/8] x9 |[M:4/4] x8 | %17
[M:3/4] F>F G>G F2 |] %18
V:4
 x8 | x8 | x8 | x8 | x8 | x8 | x4[K:bass] x4 | x8 |[M:3/4] x6 |[M:1/4] x2 | %10
[M:4/4] x2[K:treble] x6 | x2[K:bass] x6 | x4[K:bass] x4 | x8 | x8 |[M:9/8][K:treble] x9 | %16
[M:4/4] x4[K:bass] x4 |[M:3/4] D,6 |] %18

